washing-machine-off.svg

<svg fill="currentColor" viewBox="0 0 24 24"><path d="M22.11 21.46 2.39 1.73 1.11 3 4 5.89V20c0 1.11.89 2 2 2h12c.58 0 1.1-.25 1.46-.65l1.38 1.38zM12 20c-3.31 0-6-2.69-6-6 0-1.68.7-3.2 1.82-4.29l4.24 4.24-2.89 2.88a4.01 4.01 0 0 0 5.66 0c.02-.02.03-.04.05-.06l1.41 1.41A5.96 5.96 0 0 1 12 20m-.75-11.95C11.5 8 11.75 8 12 8c3.31 0 6 2.69 6 6 0 .25 0 .5-.05.75L20 16.8V4a2 2 0 0 0-2-2H6c-.24 0-.46.05-.67.13zM10 4c.55 0 1 .45 1 1s-.45 1-1 1-1-.45-1-1 .45-1 1-1"/></svg>

<svg  viewBox="0 0 24 24" fill="currentColor"><path  d="M22.11 21.46L2.39 1.73L1.11 3L4 5.89V20C4 21.11 4.89 22 6 22H18C18.58 22 19.1 21.75 19.46 21.35L20.84 22.73L22.11 21.46M12 20C8.69 20 6 17.31 6 14C6 12.32 6.7 10.8 7.82 9.71L12.06 13.95L9.17 16.83C10.73 18.39 13.27 18.39 14.83 16.83C14.85 16.81 14.86 16.79 14.88 16.77L16.29 18.18C15.2 19.3 13.69 20 12 20M11.25 8.05C11.5 8 11.75 8 12 8C15.31 8 18 10.69 18 14C18 14.25 18 14.5 17.95 14.75L20 16.8V4C20 2.9 19.11 2 18 2H6C5.76 2 5.54 2.05 5.33 2.13L11.25 8.05M10 4C10.55 4 11 4.45 11 5S10.55 6 10 6 9 5.55 9 5 9.45 4 10 4Z"/></svg>
